X: 31861
T: Pauline's Place
R: reel
M: 4/4
K: Gmajor
|:A|BD~D2 B,DGB|AGBG AGEG|cE~E2 GAce|dBGB AGEG|
BD~D2 B,DGB|AGBG AGEG|cege dB~B2|cAFA G3:|
|:A|Bddc BG~G2|BGBd gdBd|ceed e3f|(3gfe fd edBA|
Bddc BG~G2|BGBd gdBd|cege dB~B2|cAFA G3:|

